dist/svgs/devui-icons/editor/link.svg

<?xml version="1.0" encoding="UTF-8"?>
<svg width="16px" height="16px" viewBox="0 0 16 16" version="1.1" xmlns="http://www.w3.org/2000/svg" xmlns:xlink="http://www.w3.org/1999/xlink">
    <title>释义_富文本编辑/link16x16</title>
    <desc>Created with Sketch.</desc>
    <g id="释义_富文本编辑/link16x16" stroke="none" stroke-width="1" fill="none" fill-rule="evenodd">
        <path d="M4.499,10.863 L10.863,4.499 L11.573,5.209 L5.209,11.573 L4.499,10.863 Z M3.64649819,6.99452063 C3.66194719,7.01086151 3.67767307,7.02703631 3.69367584,7.04303908 L4.38852082,7.73788406 L1.80224782,10.3241571 C0.732584061,11.3938208 0.732584061,13.1280884 1.80224782,14.1977522 C2.87191157,15.2674159 4.60617918,15.2674159 5.67584293,14.1977522 L8.26211594,11.6114792 L8.95696092,12.3063242 C8.97296369,12.3223269 8.98913849,12.3380528 9.00547937,12.3535018 L6.46886252,14.8901187 C4.98902073,16.3699604 2.58972313,16.3699604 1.10988134,14.8901187 C-0.369960447,13.4102769 -0.369960447,11.0109793 1.10988134,9.53113748 L3.64649819,6.99452063 Z M6.99452063,3.64649819 L9.53113748,1.10988134 C11.0109793,-0.369960447 13.4102769,-0.369960447 14.8901187,1.10988134 C16.3699604,2.58972313 16.3699604,4.98902073 14.8901187,6.46886252 L12.3535018,9.00547937 C12.3380528,8.98913849 12.3223269,8.97296369 12.3063242,8.95696092 L11.6114792,8.26211594 L14.1977522,5.67584293 C15.2674159,4.60617918 15.2674159,2.87191157 14.1977522,1.80224782 C13.1280884,0.732584061 11.3938208,0.732584061 10.3241571,1.80224782 L7.73788406,4.38852082 L7.04303908,3.69367584 C7.02703631,3.67767307 7.01086151,3.66194719 6.99452063,3.64649819 Z" id="形状" fill="#293040" fill-rule="nonzero"></path>
    </g>
</svg>

<svg xmlns="http://www.w3.org/2000/svg" viewBox="0 0 16 16"><path d="M4.499 10.863l6.364-6.364.71.71-6.364 6.364-.71-.71zm-.853-3.868l.048.048.695.695-2.587 2.586a2.739 2.739 0 103.874 3.874l2.586-2.587.695.695.048.048L6.47 14.89a3.79 3.79 0 01-5.36-5.359l2.537-2.536zm3.349-3.349L9.53 1.11a3.79 3.79 0 015.36 5.359l-2.537 2.536a2.413 2.413 0 00-.048-.048l-.695-.695 2.587-2.586a2.739 2.739 0 00-3.874-3.874L7.738 4.39l-.695-.695a2.413 2.413 0 00-.048-.048z"/></svg>
